X:132
T:Three Little Drummers
C:Traditional
S:Fife & Drum tune learned from Paul & Susan Heasty
M:6/8
R:Jig
L:1/8
K:Em
eAA eAA | BAB GBd | eAA eAA | def gfg
eAA eAA | BAB GAB | def ged | BAG A3 :|
eaa eaa | dgg dgg | eaa eaa | def gfg
eaa eaa | dgg dgg | def ged | BAG A3 :|
eaa aga | bab ged | eaa aga | def gfg
eaa aga | bab ged | def ged | BAG A3 :|

